svg/microsoft_azure_devops.svg

<svg xmlns="http://www.w3.org/2000/svg" viewBox="0 0 24 24"><path d="m22 18-5 4-8-3v3l-4.19-5.75 12.91 1.05V6.34L22 5.65zM4.81 16.25V8.96l12.91-2.62L10.6 2v2.84L3.97 6.76 2 9.38v5.69z"/></svg>

<?xml version="1.0" encoding="UTF-8"?><!DOCTYPE svg PUBLIC "-//W3C//DTD SVG 1.1//EN" "http://www.w3.org/Graphics/SVG/1.1/DTD/svg11.dtd"><svg xmlns="http://www.w3.org/2000/svg" xmlns:xlink="http://www.w3.org/1999/xlink" version="1.1" id="mdi-microsoft-azure-devops" width="24" height="24" viewBox="0 0 24 24"><path d="M22 18L17 22L9 19V22L4.81 16.25L17.72 17.3V6.34L22 5.65V18M4.81 16.25V8.96L17.72 6.34L10.6 2V4.84L3.97 6.76L2 9.38V15.07L4.81 16.25Z" /></svg>
